dist/svgs/crypto-icons/icons/oax.svg

<?xml version="1.0" encoding="UTF-8" standalone="yes"?>
<svg xmlns="http://www.w3.org/2000/svg" xmlns:xlink="http://www.w3.org/1999/xlink" width="508px" height="173.33333333333331px" viewBox="0 0 381 130" version="1.1">
  <g id="surface1">
    <path style=" stroke:none;fill-rule:nonzero;fill:rgb(0%,0%,0%);fill-opacity:1;" d="M 157.050781 108.363281 L 146.28125 130 L 122.398438 130 L 187.246094 0 L 230.503906 86.664062 L 206.050781 86.664062 L 186.683594 49.046875 L 167.316406 87.300781 Z M 251.539062 130 L 227.65625 130 L 216.828125 108.363281 L 240.710938 108.363281 Z M 251.539062 130 "/>
    <path style=" stroke:none;fill-rule:nonzero;fill:rgb(0%,0%,0%);fill-opacity:1;" d="M 315.832031 47.910156 L 302.15625 65.582031 L 250.921875 0.613281 L 278.828125 0.613281 Z M 302.15625 65.023438 L 315.832031 82.691406 L 278.835938 129.988281 L 250.921875 129.988281 Z M 329.507812 65.023438 L 315.832031 47.351562 L 352.828125 0.0546875 L 380.128906 0.0546875 Z M 329.507812 65.023438 L 380.128906 130 L 352.84375 130 L 315.847656 82.703125 Z M 110.949219 18.84375 C 123.34375 30.953125 130.140625 47.695312 129.699219 65.035156 C 129.851562 82.324219 123.101562 98.953125 110.949219 111.226562 C 98.449219 124.371094 83.042969 130.011719 64.839844 130.011719 C 47.566406 130.269531 30.925781 123.492188 18.734375 111.226562 C 6.394531 99.078125 -0.390625 82.363281 -0.015625 65.035156 C -0.253906 51.523438 3.941406 38.308594 11.929688 27.417969 L 27.832031 43.351562 C 23.726562 50.042969 21.5625 57.75 21.582031 65.605469 C 21.597656 77.113281 26.078125 88.160156 34.082031 96.414062 C 42.117188 104.8125 53.222656 109.558594 64.835938 109.558594 C 76.445312 109.558594 87.554688 104.8125 95.589844 96.414062 C 103.84375 88.328125 108.371094 77.167969 108.089844 65.605469 C 108.070312 54.101562 103.589844 43.050781 95.589844 34.796875 C 87.515625 26.527344 76.378906 21.992188 64.835938 22.273438 C 57.242188 22.066406 49.746094 24.046875 43.242188 27.976562 L 27.339844 12.046875 C 38.207031 4.042969 51.398438 -0.160156 64.886719 0.0820312 C 82.167969 -0.304688 98.839844 6.484375 110.949219 18.84375 Z M 110.949219 18.84375 "/>
  </g>
</svg>

<svg xmlns="http://www.w3.org/2000/svg" viewBox="0 0 381 130"><path d="M157.05 108.363L146.282 130h-23.883L187.246 0l43.258 86.664H206.05l-19.367-37.617L167.316 87.3zM251.54 130h-23.884l-10.828-21.637h23.883zm0 0"/><path d="M315.832 47.91l-13.676 17.672L250.922.613h27.906zm-13.676 17.113l13.676 17.668-36.996 47.297h-27.914zm27.352 0l-13.676-17.671L352.828.055h27.3zm0 0L380.128 130h-27.284l-36.996-47.297zm-218.559-46.18a62.365 62.365 0 0118.75 46.192 64.835 64.835 0 01-18.75 46.192c-12.5 13.144-27.906 18.785-46.11 18.785a63.665 63.665 0 01-46.105-18.785A62.912 62.912 0 01-.016 65.035 61.759 61.759 0 0111.93 27.418l15.902 15.934a42.357 42.357 0 00-6.25 22.253 44.336 44.336 0 0012.5 30.81 42.556 42.556 0 0030.754 13.144A42.562 42.562 0 0095.59 96.414a41.71 41.71 0 0012.5-30.809 44.378 44.378 0 00-12.5-30.808 41.562 41.562 0 00-30.754-12.524 39.67 39.67 0 00-21.594 5.704L27.34 12.047A61.447 61.447 0 0164.887.082a62.525 62.525 0 0146.062 18.762zm0 0"/></svg>
